X:285
T:Rond de Loudeac s1.1
C:  trans. Jim Oakden
J:Lark19?
M:4/4
Q: 1/4=170
K:Am
L:1/8
AeeA cBAG|AeeA c2A2|AeeA cBAG|AeeA c2A2||
|:AeeA cBAB| c2 BA GABG|BcdB d2 cA|cdBA GA B2|BcdBc2A2:|

